X: 45
T:Charlie Hunter
% Nottingham Music Database
S:Jim McLeod, via EF
Y:AB
M:6/8
K:D
P:A
A|"D"DFA "G"GBd|"D/f+"Adf "A7/e"a2g|"D"fed "G"Bcd|"Em"ecA "A7"GFE|
"D"DFA "G"GBd|"D"Adf "A"a2g|"Bm"fef "A7"gec|"A7"edc "D"d2:|
P:B
f/2g/2|"D"afd d2c|"G"BGG G2F|"E7"E^GB e2d|"A7"cAA Aag|
"D"fdA FDF|"G"GBd g2a/2g/2|"D"fef "A7"gec|"A7"edc "D"d2:|


